X:0632
T:Capt. Mackintosh.
M:2/4
L:1/8
Q:1/4=144
I: || ||
Z:Jack Campin * www.campin.me.uk * 2009
K:A
E|A>BA>B| GEEE   |A>BA>c|e2ec|fddf      |eccA      |BcdB |AGFE|
  A>BA>B| GEEE   |A>BA>c|e2ec|fddf      |eccA      |BABc |A3 ||
A|e>fe>f|(dB)(Bc)|d>ed>e|cAAA|F(B/c/) dB|G(c/d/) ec|fdBA |AGFE|
  A>BA>B| GEEE   |A>BA>c|e2ec|fddf      |eccA      |BAB>c|A3 |]
<end>
<start>
